src/data/eyes/1f60c.svg

<svg xmlns="http://www.w3.org/2000/svg" viewBox="0 0 36 36"><path d="M6.999 13a1 1 0 0 1-.799-1.6c3.339-4.454 8.766-3.426 8.996-3.38a1.001 1.001 0 0 1-.39 1.962C14.62 9.947 10.37 9.174 7.8 12.6a.998.998 0 0 1-.801.4ZM29.001 13a.998.998 0 0 1-.801-.4c-2.592-3.456-6.961-2.628-7.004-2.62a.998.998 0 0 1-1.177-.784 1.001 1.001 0 0 1 .784-1.177c.231-.047 5.657-1.072 8.996 3.38A1 1 0 0 1 29.001 13ZM15.702 15.598c-.012.009-1.26.902-3.702.902-2.441 0-3.69-.893-3.7-.9a.5.5 0 0 0-.757.603c.06.135 1.5 3.297 4.457 3.297 2.958 0 4.397-3.162 4.457-3.297a.501.501 0 0 0-.755-.605zM28.312 15.612a.503.503 0 0 0-.61-.014c-.012.009-1.261.902-3.702.902-2.44 0-3.69-.893-3.7-.9a.5.5 0 0 0-.757.603c.06.135 1.5 3.297 4.457 3.297 2.958 0 4.397-3.162 4.457-3.297a.498.498 0 0 0-.145-.591z" style="fill:#664500;fill-opacity:1"/></svg>

<?xml version="1.0" encoding="UTF-8" standalone="no"?>
<svg
   xmlns:dc="http://purl.org/dc/elements/1.1/"
   xmlns:cc="http://creativecommons.org/ns#"
   xmlns:rdf="http://www.w3.org/1999/02/22-rdf-syntax-ns#"
   xmlns:svg="http://www.w3.org/2000/svg"
   xmlns="http://www.w3.org/2000/svg"
   xmlns:sodipodi="http://sodipodi.sourceforge.net/DTD/sodipodi-0.dtd"
   xmlns:inkscape="http://www.inkscape.org/namespaces/inkscape"
   viewBox="0 0 36 36"
   version="1.1"
   id="svg6"
   sodipodi:docname="1f60c.svg"
   inkscape:version="1.0.1 (3bc2e813f5, 2020-09-07)">
  <metadata
     id="metadata12">
    <rdf:RDF>
      <cc:Work
         rdf:about="">
        <dc:format>image/svg+xml</dc:format>
        <dc:type
           rdf:resource="http://purl.org/dc/dcmitype/StillImage" />
        <dc:title></dc:title>
      </cc:Work>
    </rdf:RDF>
  </metadata>
  <defs
     id="defs10" />
  <sodipodi:namedview
     pagecolor="#ffffff"
     bordercolor="#666666"
     borderopacity="1"
     objecttolerance="10"
     gridtolerance="10"
     guidetolerance="10"
     inkscape:pageopacity="0"
     inkscape:pageshadow="2"
     inkscape:window-width="1366"
     inkscape:window-height="728"
     id="namedview8"
     showgrid="false"
     inkscape:zoom="23.305556"
     inkscape:cx="18"
     inkscape:cy="18"
     inkscape:window-x="3840"
     inkscape:window-y="312"
     inkscape:window-maximized="1"
     inkscape:current-layer="svg6" />
  <path
     d="M 6.999,13 C 6.791,13 6.58,12.935 6.4,12.8 5.958,12.469 5.869,11.842 6.2,11.4 9.539,6.946 14.966,7.974 15.196,8.02 15.738,8.128 16.089,8.655 15.98,9.197 15.872,9.737 15.346,10.088 14.806,9.982 14.62,9.947 10.37,9.174 7.8,12.6 7.604,12.862 7.303,13 6.999,13 Z"
     id="path843"
     style="fill:#664500;fill-opacity:1" />
  <path
     d="M 29.001,13 C 28.696,13 28.397,12.862 28.2,12.6 25.608,9.144 21.239,9.972 21.196,9.98 20.649,10.088 20.128,9.737 20.019,9.196 19.911,8.655 20.262,8.128 20.803,8.019 c 0.231,-0.047 5.657,-1.072 8.996,3.38 0.332,0.442 0.242,1.069 -0.2,1.4 C 29.42,12.935 29.21,13 29.001,13 Z"
     id="path841"
     style="fill:#664500;fill-opacity:1" />
  <path
     d="M 15.702,15.598 C 15.69,15.607 14.442,16.5 12,16.5 9.559,16.5 8.31,15.607 8.3,15.6 8.117,15.463 7.866,15.467 7.689,15.609 7.511,15.751 7.451,15.995 7.543,16.203 7.603,16.338 9.043,19.5 12,19.5 c 2.958,0 4.397,-3.162 4.457,-3.297 0.092,-0.207 0.032,-0.449 -0.145,-0.591 -0.176,-0.143 -0.428,-0.147 -0.61,-0.014 z"
     id="path839"
     style="fill:#664500;fill-opacity:1" />
  <path
     d="M 28.312,15.612 C 28.137,15.47 27.886,15.465 27.702,15.598 27.69,15.607 26.441,16.5 24,16.5 c -2.44,0 -3.69,-0.893 -3.7,-0.9 -0.183,-0.137 -0.435,-0.133 -0.611,0.009 -0.178,0.142 -0.238,0.386 -0.146,0.594 0.06,0.135 1.5,3.297 4.457,3.297 2.958,0 4.397,-3.162 4.457,-3.297 0.092,-0.207 0.032,-0.449 -0.145,-0.591 z"
     id="path4"
     style="fill:#664500;fill-opacity:1" />
</svg>
